packages/components/src/components/icon/wallet/ic-wallet-zingpay-dark.svg

<svg width="40" height="25" viewBox="0 0 40 25" fill="none" xmlns="http://www.w3.org/2000/svg">
<path d="M25.0966 9.83133C25.2164 9.83133 25.3355 9.84444 25.4524 9.8701C25.5727 9.89633 25.6919 9.9294 25.8082 9.96931H27.1812V10.3924H26.2609V10.4186C26.3613 10.5338 26.4405 10.6666 26.4947 10.8097C26.5414 10.9523 26.5648 11.1017 26.5654 11.2522C26.5745 11.6188 26.4223 11.9706 26.1486 12.2146C25.8909 12.4644 25.5453 12.6035 25.1861 12.6024C25.1861 12.6024 24.7374 12.6024 24.7055 12.6822C24.7055 12.6822 24.2853 13.0482 24.7055 13.2409C24.8857 13.3191 25.0772 13.3692 25.2728 13.3881L25.3367 13.392C25.4273 13.3983 25.5391 13.4109 25.6674 13.4109H25.7506C25.953 13.4365 26.0938 13.4365 26.1805 13.4365C26.3077 13.4439 26.4314 13.4764 26.546 13.5323C26.6657 13.5933 26.7741 13.6731 26.867 13.7701C26.9713 13.8784 27.0563 14.0038 27.1173 14.1418C27.1834 14.3037 27.2165 14.4771 27.2131 14.6521C27.2142 14.8505 27.1726 15.0472 27.0911 15.2291C27.0033 15.4161 26.871 15.5786 26.7068 15.7035C26.5129 15.8478 26.2963 15.9561 26.0653 16.0245C25.7688 16.1055 25.4615 16.1431 25.1542 16.1368C24.6946 16.1671 24.2362 16.0684 23.8297 15.8518C23.5423 15.6773 23.3736 15.3597 23.3907 15.0239C23.381 14.7553 23.5001 14.4982 23.7111 14.3311C23.9432 14.1538 24.2265 14.0557 24.519 14.0517V13.9947C24.4392 13.9656 24.3588 13.9331 24.2756 13.8949C24.1969 13.8607 24.1233 13.8151 24.0572 13.7604C23.9876 13.7005 23.9312 13.6275 23.8907 13.5454C23.8428 13.4456 23.8206 13.335 23.8263 13.2244C23.828 13.0722 23.8799 12.9245 23.974 12.8048C24.0965 12.6639 24.2505 12.5539 24.4232 12.4838V12.4193C24.1895 12.303 23.9882 12.1314 23.836 11.9193C23.6934 11.7118 23.6193 11.4654 23.6244 11.2134C23.613 10.8382 23.7636 10.4756 24.0384 10.2196C24.3257 9.95563 24.7061 9.81651 25.0966 9.8319V9.83133ZM25.3082 14.2673C24.9073 14.2444 24.5253 14.4372 24.5253 14.9087C24.5264 14.9811 24.5424 15.0529 24.5709 15.1197C24.6034 15.1961 24.6542 15.2633 24.718 15.3158C24.795 15.3791 24.8845 15.4264 24.9809 15.4538C25.112 15.4937 25.2489 15.5119 25.3851 15.5079C25.6132 15.5188 25.839 15.4532 26.0266 15.3221C26.1822 15.1841 26.274 14.9879 26.2797 14.7804C26.2923 14.631 26.2313 14.4851 26.1161 14.3887C26.002 14.3231 25.8726 14.2912 25.7409 14.2958C25.5967 14.2673 25.4524 14.2673 25.3082 14.2673ZM17.4797 8.53533V9.66427L15.7601 13.4131H17.5116V14.3722H14.3044V13.9554L16.3987 9.68023H14.362V8.53533H17.4791H17.4797ZM19.3043 10.0554V14.3722H18.1434V10.056H19.3043V10.0554ZM22.0884 9.83076C22.4841 9.80282 22.8661 9.97957 23.1016 10.2989C23.1124 10.3177 23.1221 10.3371 23.1301 10.357C23.251 10.6376 23.2994 10.9443 23.2715 11.2482V14.3727H22.0274V11.4278C22.0302 11.2322 22.0331 10.9147 21.8221 10.8189C21.7452 10.7858 21.6613 10.7733 21.5781 10.7835C21.5068 10.7875 21.4378 10.808 21.3763 10.8445C21.1807 10.9694 21.1807 11.3121 21.1807 11.5213V14.3722H19.936V9.89576H21.1807V10.1523C21.435 9.93966 21.7566 9.8262 22.0884 9.83133V9.83076ZM25.0675 10.2989C24.9889 10.2972 24.9119 10.3194 24.8463 10.3633C24.7807 10.4101 24.7289 10.4728 24.6958 10.5458C24.657 10.6296 24.6314 10.7179 24.6188 10.8092C24.6029 10.9129 24.596 11.0184 24.596 11.1233C24.588 11.3303 24.6336 11.5356 24.7271 11.7197C24.7899 11.856 24.9216 11.9461 25.071 11.9535C25.2266 11.9552 25.3686 11.8651 25.433 11.7232C25.5254 11.5441 25.5699 11.344 25.5613 11.1427C25.5716 10.93 25.5271 10.7179 25.433 10.5269C25.3652 10.3867 25.2232 10.2983 25.0681 10.2989H25.0675ZM18.733 8.26906C18.8852 8.26963 19.03 8.3352 19.1309 8.44867L19.1765 8.50283C19.2615 8.6163 19.3065 8.75485 19.3043 8.89739C19.3077 9.06673 19.2444 9.23037 19.1275 9.35296C19.0249 9.4687 18.8755 9.53313 18.7204 9.52971C18.5687 9.52857 18.4239 9.46357 18.323 9.34954C18.0949 9.09125 18.0949 8.70353 18.323 8.44525L18.38 8.39393C18.4804 8.31468 18.6041 8.27077 18.7335 8.26849L18.733 8.26906Z" fill="white"/>
<path d="M38.7499 9.96218L37.1164 14.7721L37.0041 15.0931L36.959 15.2043C36.9003 15.3469 36.8473 15.4677 36.796 15.5675C36.7195 15.7112 36.6295 15.8463 36.5263 15.9718L36.4499 16.0539C36.3421 16.1576 36.2144 16.2386 36.0741 16.2922C35.882 16.3663 35.6773 16.4022 35.4714 16.3983C35.3243 16.3983 35.1772 16.388 35.0318 16.3663H34.9161V15.5487L35.0769 15.5744C35.1732 15.5892 35.2707 15.596 35.3688 15.5932C35.5376 15.6057 35.7052 15.5555 35.8398 15.4523C35.9698 15.3229 36.0599 15.1593 36.0998 14.9808L36.1574 14.7784L34.4868 9.98727H35.789L36.6357 13.2618L37.4824 9.98727H38.5601L38.7488 9.96161L38.7499 9.96218ZM32.8162 9.91713C33.2284 9.90003 33.6321 10.0369 33.9485 10.302C34.2684 10.6116 34.4343 11.0478 34.4007 11.4919V14.6347H33.5409V14.3143C33.4593 14.3998 33.3652 14.4739 33.262 14.5321C33.034 14.6598 32.7757 14.7237 32.5151 14.7185C32.3178 14.7185 32.1228 14.6809 31.9404 14.6062C31.7671 14.5338 31.612 14.4243 31.4854 14.2852C31.3577 14.1512 31.2585 13.9933 31.1935 13.8205L31.1547 13.7031C31.1091 13.5457 31.0863 13.3821 31.0874 13.2173C31.0828 12.9641 31.1421 12.7132 31.2607 12.4892C31.3839 12.2771 31.5686 12.1072 31.7899 12.0017C32.0436 11.8762 32.3247 11.8158 32.6075 11.8249H33.5312V11.5045C33.5517 11.3049 33.485 11.1065 33.3487 10.9594C33.1948 10.8345 32.998 10.7724 32.8002 10.7861C32.636 10.7781 32.4729 10.8163 32.3287 10.8955C32.2146 10.9691 32.1348 11.0837 32.104 11.216L32.0755 11.3158H31.2408V11.1675C31.2545 10.8015 31.4307 10.4605 31.722 10.2381C32.0413 10.0141 32.4256 9.90174 32.8156 9.91713H32.8162ZM29.0513 8.83324C29.5594 8.79105 30.0645 8.94214 30.4659 9.25631L30.5446 9.34925C30.8194 9.69876 30.9528 10.1418 30.9152 10.5877C30.9283 10.948 30.8525 11.3061 30.6934 11.6299C30.5435 11.9104 30.2994 12.13 30.0041 12.2486L29.8216 12.3022C29.5166 12.3825 29.2013 12.4208 28.8848 12.4156V14.5646H27.6595V8.83324H29.0513ZM33.4456 12.6625L32.7329 12.6722C32.5847 12.6568 32.4376 12.7172 32.3424 12.8324C32.2568 12.963 32.2158 13.1164 32.2232 13.2714C32.2095 13.4505 32.2631 13.6278 32.3743 13.7692L32.4193 13.8142C32.514 13.8986 32.6371 13.9454 32.7654 13.9454C32.9604 13.9454 33.1423 13.849 33.2529 13.6888C33.388 13.5029 33.4559 13.2766 33.4456 13.0474V12.6625ZM28.9652 9.77174L28.8848 9.7763V11.46C29.0912 11.4748 29.2971 11.4235 29.4721 11.3118C29.6209 11.1339 29.6888 10.9012 29.6574 10.6709C29.6797 10.4246 29.6124 10.1788 29.4687 9.97814C29.3136 9.82762 29.0998 9.7535 28.8848 9.7763L28.9652 9.77174Z" fill="#72C579"/>
<path d="M7.3799 15.816C7.3856 15.8314 7.3913 15.8462 7.39929 15.8605C7.42951 15.9312 7.46942 15.9973 7.51788 16.0561C7.55894 16.1131 7.60512 16.1655 7.65586 16.2134C7.75849 16.3092 7.87424 16.3902 7.99911 16.454C8.06981 16.4877 8.14279 16.5168 8.21691 16.5407C8.4045 16.4592 8.60634 16.4164 8.81046 16.4153C8.93476 16.4164 9.05848 16.4324 9.17936 16.4637C9.64291 16.2111 9.91032 15.706 9.859 15.1808C9.89093 14.5765 9.48554 14.0365 8.89712 13.898C8.8116 13.9094 8.72607 13.9151 8.64055 13.9168C8.07266 13.9168 7.31262 13.6893 7.03666 13.1311C6.86675 12.7719 7.03666 12.371 6.95056 11.9993C6.86732 11.684 6.67688 11.4086 6.41175 11.2199C6.17684 11.0488 5.89347 10.9576 5.60325 10.9599C5.08896 10.9399 4.61344 11.2341 4.40247 11.7034C4.19094 12.1732 4.28502 12.724 4.64081 13.0957C4.88028 13.358 5.21098 13.5177 5.56448 13.5416H5.73496C6.28575 13.5547 6.80004 13.8216 7.12732 14.2657C7.45459 14.7087 7.55894 15.2789 7.40898 15.8092L7.38047 15.8154L7.3799 15.816Z" fill="#A8E2C1"/>
<path d="M3.99989 15.6229C3.9862 15.5419 3.97708 15.461 3.97423 15.3789V15.3213C3.97252 14.6969 4.30208 14.1182 4.83975 13.8012H4.85571C5.11628 13.6547 5.40992 13.5771 5.70926 13.5766C5.85978 13.5766 5.87289 13.487 6.01373 13.5224C6.54398 13.3519 6.92201 12.8832 6.97617 12.329C6.9853 11.9641 6.83933 11.6123 6.57306 11.362C6.30736 11.1111 5.94759 10.9857 5.58382 11.0171C4.83119 11.0484 4.24677 11.6825 4.27528 12.4351C4.32374 13.0035 4.06146 13.5543 3.58879 13.8748C3.10472 14.1348 2.54367 13.9455 2.07556 14.2665C1.5721 14.5806 1.33035 15.1844 1.47745 15.7592C1.62456 16.3339 2.12574 16.7478 2.71814 16.7826C3.31055 16.8168 3.85677 16.465 4.07002 15.9114C4.03923 15.8173 4.01528 15.721 3.99989 15.6229Z" fill="#93D9E5"/>
<path d="M11.7194 16.8766C11.3773 16.9028 11.0352 16.8293 10.7347 16.6651C10.4935 16.5465 10.2911 16.3617 10.1509 16.1325C9.96784 15.8537 9.87034 15.527 9.87148 15.1929C9.87205 14.9996 9.90512 14.808 9.96841 14.6256C9.67078 14.0782 9.03618 13.808 8.43636 13.9722C7.83597 14.1369 7.42716 14.6929 7.45054 15.3149C7.44142 15.8309 7.7419 16.3025 8.214 16.5111C8.36794 16.4535 8.53044 16.4199 8.69465 16.4119C9.49973 16.3583 10.2045 16.945 10.2985 17.7461C10.3727 18.1338 10.2985 18.5444 10.5169 18.9133C10.7621 19.3369 11.2137 19.598 11.7029 19.5997C12.4315 19.5644 13.0029 18.964 13.0029 18.2348C13.0029 17.5061 12.4315 16.9057 11.7029 16.8703L11.7194 16.8766Z" fill="#A8E2C1"/>
<path d="M5.60315 10.8663C5.23996 10.904 4.87334 10.8395 4.54492 10.6805C4.31685 10.5465 4.12869 10.3538 3.99927 10.1223C3.94624 10.0128 3.91089 9.89591 3.89378 9.77618C3.8265 9.47969 3.8265 9.1718 3.89378 8.87474C3.65146 8.22303 2.95814 7.8587 2.28362 8.02804C1.60968 8.19738 1.17122 8.8468 1.26587 9.53499C1.36052 10.2238 1.95806 10.7312 2.65252 10.7124C2.98265 10.6919 3.31107 10.7711 3.59559 10.9405C3.79514 11.0579 3.96163 11.2244 4.08023 11.4245C4.36189 11.9052 4.15663 12.4092 4.44514 12.887C4.76044 13.4116 5.38478 13.6653 5.97661 13.5074C6.56788 13.3494 6.98353 12.8192 6.99494 12.2074C6.9881 11.8448 6.83814 11.4998 6.577 11.2484C6.31587 10.9969 5.96578 10.8595 5.60315 10.8663Z" fill="#93D9E5"/>
<path d="M5.50053 5.00097C4.88132 5.01693 4.35277 5.4514 4.21764 6.05578C4.16291 6.34486 4.16975 6.64306 4.11843 6.93156C4.07966 7.17616 3.98388 7.40765 3.83905 7.60835C3.69252 7.80905 3.47642 7.94703 3.23296 7.99607C3.01972 8.01317 2.80533 8.01317 2.59152 7.99607C1.92556 8.00747 1.36508 8.49782 1.26531 9.15636C1.1661 9.81491 1.5578 10.4489 2.19069 10.6553C2.81788 10.8481 3.49467 10.5818 3.82309 10.0139C3.8516 9.96258 3.87155 9.90785 3.88067 9.85026C3.89208 9.77443 3.89208 9.69803 3.88067 9.62219C3.82423 9.28408 3.86357 8.93628 3.993 8.61869C4.12699 8.2994 4.37672 8.04282 4.69203 7.90028C5.10597 7.72353 5.58719 7.79765 6.01368 7.64655C6.52113 7.44985 6.86323 6.97147 6.88604 6.4281C6.906 6.05065 6.76744 5.68175 6.50403 5.41092C6.23947 5.14009 5.87456 4.99127 5.49654 5.0004H5.49996L5.50053 5.00097Z" fill="#93D9E5"/>
<path d="M11.6361 10.9027C10.8824 10.9221 10.2871 11.5476 10.3048 12.3008C10.3264 12.6309 10.2478 12.9593 10.0807 13.2438C9.95982 13.4417 9.7939 13.6076 9.59605 13.7285C9.1114 14.0107 8.55035 13.8214 8.07255 14.1099C7.65348 14.3864 7.41572 14.8671 7.4505 15.3677C7.48471 15.8683 7.7869 16.3119 8.23961 16.528C8.42093 16.4539 8.61478 16.4163 8.81035 16.4157C8.99281 16.4157 9.17298 16.4499 9.34289 16.5155C9.61885 16.3843 9.84464 16.1654 9.98433 15.8928C9.8971 15.679 9.85262 15.4504 9.85319 15.22C9.83153 14.5045 10.2728 13.8573 10.9462 13.6161C11.0677 13.5734 11.1959 13.5529 11.3248 13.5551H11.3761C11.7085 13.611 12.0495 13.5722 12.3608 13.4428C12.7896 13.1908 13.049 12.7278 13.0404 12.2306C13.0308 11.868 12.8768 11.5242 12.6134 11.2756C12.35 11.0264 11.9982 10.8924 11.6361 10.9027Z" fill="#A8E2C1"/>
<path d="M9.87834 15.1867C9.87834 14.9751 9.91768 14.7647 9.99408 14.5674C9.73523 14.1586 9.28137 13.9152 8.7973 13.926C8.71348 13.9294 8.63024 13.9391 8.54756 13.9545C8.4666 13.9722 8.38734 13.9956 8.31037 14.0258C8.23568 14.0571 8.16384 14.0948 8.09542 14.1375C8.027 14.1792 7.96428 14.2276 7.90612 14.2824C7.84568 14.3354 7.79095 14.3947 7.74248 14.4585C7.69345 14.5218 7.65125 14.5897 7.61419 14.6604C7.57542 14.7311 7.54349 14.8052 7.51783 14.8816C7.49446 14.9614 7.47735 15.043 7.46652 15.1256C7.46652 15.2414 7.46652 15.3594 7.44713 15.4752C7.44542 15.5299 7.43972 15.5846 7.43117 15.6388C7.42376 15.6907 7.41292 15.742 7.39924 15.7927C7.36674 15.8942 7.32569 15.9929 7.27722 16.0881C7.24529 16.1514 7.20994 16.2135 7.17174 16.274C6.87183 16.7888 6.31078 17.095 5.71553 17.0694C5.62829 17.0665 5.54163 17.0591 5.45553 17.0465C5.36145 17.0733 5.27137 17.111 5.18641 17.1589C4.76334 17.4154 4.50962 17.8773 4.51931 18.3716C4.53756 19.1345 5.17159 19.7383 5.93504 19.7201C6.69907 19.7013 7.30231 19.0672 7.28349 18.3038C7.26411 18.0415 7.29661 17.7775 7.38042 17.5283C7.55318 16.8704 8.15015 16.4137 8.8298 16.4182C9.03563 16.4182 9.23975 16.4598 9.42961 16.5402C9.69474 16.4102 9.91141 16.1987 10.0482 15.937C9.93535 15.7032 9.8772 15.4466 9.87834 15.1867Z" fill="#81D9B9"/>
<path d="M8.65994 16.415C9.3294 16.415 9.87212 15.8565 9.87212 15.1675C9.87212 14.4785 9.3294 13.92 8.65994 13.92C7.99047 13.92 7.44775 14.4785 7.44775 15.1675C7.44775 15.8565 7.99047 16.415 8.65994 16.415Z" fill="#81D9B9"/>
<path d="M6.24463 17.0053C6.08783 17.0492 5.9259 17.072 5.76341 17.0726H5.69955C4.73482 17.0658 3.95768 16.2801 3.9611 15.3154V15.2897V15.2384V15.097C3.96452 15.0514 3.97079 15.0069 3.98048 14.9624C3.98961 14.9054 4.00272 14.8484 4.01869 14.7925C3.7661 14.3398 3.28317 14.0638 2.76431 14.0775C2.26313 14.069 1.7973 14.3358 1.55099 14.7731C1.30468 15.2104 1.31836 15.747 1.5852 16.1717C1.85318 16.596 2.33155 16.84 2.83216 16.8063C3.16856 16.7841 3.50325 16.8622 3.79404 17.031C4.00614 17.141 4.18689 17.3018 4.32031 17.4997C4.60881 17.9837 4.41666 18.5448 4.71144 19.0226C4.97942 19.4365 5.44411 19.68 5.93674 19.664C6.62322 19.664 7.20194 19.1509 7.28348 18.469C7.36558 17.787 6.92427 17.1519 6.25717 16.9894L6.24463 17.0053Z" fill="#93D9E5"/>
<path d="M7.28349 18.2842C7.26411 17.6724 6.83933 17.1479 6.24464 17.0013H6.20587C6.16425 17.0013 6.11978 17.0207 6.07758 17.0304H5.69956C5.61689 17.0293 5.53421 17.0224 5.45268 17.011C5.35917 17.0361 5.27022 17.0726 5.18641 17.1205C4.76334 17.3771 4.50962 17.8389 4.51931 18.3327C4.52729 18.7734 4.75593 19.1805 5.12882 19.4166L5.18299 19.4519C5.24799 19.4918 5.31641 19.5255 5.38825 19.5511H5.42018C5.48803 19.5739 5.55531 19.5899 5.62259 19.6059H5.6836C5.76456 19.6139 5.8461 19.6139 5.92706 19.6059C6.65859 19.5962 7.25498 19.0158 7.28406 18.2848L7.28349 18.2842Z" fill="#81D9B9"/>
<path d="M5.62548 13.5474C6.3784 13.5474 6.98876 12.9472 6.98876 12.2069C6.98876 11.4666 6.3784 10.8665 5.62548 10.8665C4.87257 10.8665 4.26221 11.4666 4.26221 12.2069C4.26221 12.9472 4.87257 13.5474 5.62548 13.5474Z" fill="#81D9B9"/>
</svg>

<svg width="40" height="25" fill="none" xmlns="http://www.w3.org/2000/svg"><path d="M25.097 9.831c.12 0 .238.013.355.04.12.025.24.058.356.098h1.373v.423h-.92v.027c.1.115.18.248.234.39.046.143.07.293.07.443.01.367-.143.719-.416.963-.258.25-.604.389-.963.387 0 0-.449 0-.48.08 0 0-.42.366 0 .559.18.078.371.128.567.147l.064.004c.09.006.202.019.33.019h.084c.202.026.343.026.43.026a.96.96 0 01.365.095c.12.061.228.141.321.238.104.108.19.234.25.372.066.162.1.335.096.51a1.28 1.28 0 01-.506 1.051c-.194.145-.41.253-.642.322a3.21 3.21 0 01-.91.112 2.47 2.47 0 01-1.325-.285.914.914 0 01-.44-.828.845.845 0 01.321-.693c.232-.177.516-.275.808-.28v-.056c-.08-.03-.16-.062-.243-.1a.916.916 0 01-.219-.135.664.664 0 01-.23-.536.692.692 0 01.147-.42c.122-.14.276-.25.45-.32v-.065a1.6 1.6 0 01-.588-.5 1.202 1.202 0 01-.212-.706c-.011-.375.14-.737.414-.993a1.477 1.477 0 011.059-.388zm.211 4.436c-.4-.023-.783.17-.783.642a.56.56 0 00.046.21.516.516 0 00.147.197c.077.063.166.11.263.138.131.04.268.058.404.054.228.01.454-.055.642-.186a.752.752 0 00.253-.542.46.46 0 00-.164-.391.702.702 0 00-.375-.093c-.144-.029-.289-.029-.433-.029zM17.48 8.535v1.13l-1.72 3.748h1.752v.96h-3.208v-.418L16.4 9.68h-2.037V8.535h3.117zm1.824 1.52v4.317h-1.16v-4.316h1.16zm2.784-.224c.396-.028.778.149 1.014.468.01.019.02.038.028.058.121.28.17.587.142.891v3.125h-1.245v-2.945c.003-.196.006-.513-.205-.61a.471.471 0 00-.244-.034.443.443 0 00-.202.06c-.195.125-.195.468-.195.677v2.851h-1.245V9.896h1.245v.256a1.38 1.38 0 01.907-.32V9.83zm2.98.468a.382.382 0 00-.222.064.455.455 0 00-.15.183.926.926 0 00-.077.263c-.016.104-.023.21-.023.314-.008.207.038.413.131.597a.4.4 0 00.344.233.393.393 0 00.362-.23c.092-.179.137-.379.128-.58a1.257 1.257 0 00-.128-.616.404.404 0 00-.365-.228zm-6.335-2.03c.152 0 .297.066.398.18l.046.054c.085.113.13.252.127.394a.641.641 0 01-.176.456.529.529 0 01-.408.177.536.536 0 01-.397-.18.683.683 0 010-.905l.057-.051c.1-.08.224-.123.354-.126l-.001.001z" fill="#fff"/><path d="M38.75 9.962l-1.634 4.81-.112.321-.045.111a4.875 4.875 0 01-.163.364 2.443 2.443 0 01-.27.404l-.076.082a1.117 1.117 0 01-.376.238 1.59 1.59 0 01-.603.106 2.98 2.98 0 01-.44-.032h-.115v-.817l.16.025c.097.015.195.022.293.02a.69.69 0 00.47-.142c.13-.13.22-.293.26-.471l.058-.203-1.67-4.79h1.302l.847 3.274.846-3.275h1.078l.189-.025zm-5.934-.045c.412-.017.816.12 1.133.385.32.31.485.746.452 1.19v3.143h-.86v-.32c-.082.085-.176.159-.279.217a1.47 1.47 0 01-.747.187c-.197 0-.392-.038-.575-.113a1.285 1.285 0 01-.455-.32 1.375 1.375 0 01-.291-.466l-.04-.117a1.705 1.705 0 01-.067-.486 1.498 1.498 0 01.174-.728c.123-.212.308-.382.529-.487a1.72 1.72 0 01.818-.177h.923v-.32a.697.697 0 00-.182-.546.786.786 0 00-.549-.173.89.89 0 00-.471.11.52.52 0 00-.225.32l-.029.1h-.834v-.149c.014-.365.19-.707.481-.929.32-.224.704-.336 1.094-.32zm-3.765-1.084a2.023 2.023 0 011.415.423l.079.093c.274.35.408.793.37 1.239.013.36-.063.718-.222 1.042-.15.28-.394.5-.689.619l-.182.053c-.305.08-.62.119-.937.114v2.149h-1.226V8.833h1.392zm4.395 3.83l-.713.01a.448.448 0 00-.39.16.735.735 0 00-.12.438c-.014.18.04.357.151.498l.045.045a.52.52 0 00.346.131.593.593 0 00.488-.256c.135-.186.203-.412.193-.642v-.385zm-4.48-2.891l-.081.004v1.684a.963.963 0 00.587-.148.826.826 0 00.185-.641 1.03 1.03 0 00-.188-.693.728.728 0 00-.584-.202l.08-.004z" fill="#72C579"/><path d="M7.38 15.816a.805.805 0 00.138.24c.04.057.087.11.138.157.102.096.218.177.343.241.07.034.144.063.218.087a1.51 1.51 0 01.593-.126c.125.001.248.017.37.049.463-.253.73-.758.679-1.283a1.25 1.25 0 00-.962-1.283 2.282 2.282 0 01-.256.019c-.568 0-1.328-.228-1.604-.786-.17-.36 0-.76-.086-1.132a1.392 1.392 0 00-.54-.78 1.355 1.355 0 00-.808-.26 1.263 1.263 0 00-.962 2.137c.24.262.57.422.923.446h.171a1.782 1.782 0 011.674 2.267l-.029.006v.001z" fill="#A8E2C1"/><path d="M4 15.623a1.844 1.844 0 01-.026-.244v-.058a1.76 1.76 0 01.866-1.52h.016c.26-.146.554-.224.853-.224.15 0 .164-.09.305-.055.53-.17.908-.639.962-1.193a1.282 1.282 0 00-1.392-1.312 1.367 1.367 0 00-1.309 1.418 1.578 1.578 0 01-.686 1.44c-.484.26-1.045.07-1.513.392a1.361 1.361 0 00.642 2.516 1.364 1.364 0 001.352-.872 1.85 1.85 0 01-.07-.288z" fill="#93D9E5"/><path d="M11.72 16.877a1.771 1.771 0 01-.985-.212 1.418 1.418 0 01-.584-.532 1.702 1.702 0 01-.183-1.507 1.341 1.341 0 00-2.517.689c-.01.516.29.987.763 1.196.154-.058.316-.091.48-.1a1.513 1.513 0 011.604 1.335c.075.388 0 .798.219 1.167.245.424.697.685 1.186.687a1.366 1.366 0 000-2.73l.016.007z" fill="#A8E2C1"/><path d="M5.603 10.866a1.964 1.964 0 01-1.058-.185 1.49 1.49 0 01-.546-.559 1.176 1.176 0 01-.105-.346 2.038 2.038 0 010-.901 1.363 1.363 0 10-1.241 1.837c.33-.02.658.06.943.229.2.117.366.283.484.483.282.481.077.985.365 1.463a1.374 1.374 0 002.55-.68 1.366 1.366 0 00-1.392-1.34z" fill="#93D9E5"/><path d="M5.5 5.001a1.35 1.35 0 00-1.282 1.055c-.055.289-.048.587-.1.876a1.578 1.578 0 01-.279.676.992.992 0 01-.606.388 4.017 4.017 0 01-.641 0 1.363 1.363 0 00-.4 2.66 1.408 1.408 0 001.631-.642.496.496 0 00.058-.164.764.764 0 000-.228 1.853 1.853 0 01.112-1.003 1.37 1.37 0 01.699-.719c.414-.176.895-.102 1.322-.253.507-.197.85-.676.872-1.219A1.357 1.357 0 005.496 5H5.5v.001z" fill="#93D9E5"/><path d="M11.636 10.903a1.367 1.367 0 00-1.331 1.398 1.65 1.65 0 01-.224.943c-.121.198-.287.364-.485.485-.485.282-1.046.092-1.523.38a1.392 1.392 0 00.167 2.419 1.478 1.478 0 011.103-.012c.276-.132.502-.35.641-.623a1.77 1.77 0 01-.13-.673 1.65 1.65 0 011.092-1.604c.122-.043.25-.063.379-.06h.051c.333.055.674.016.985-.113.429-.252.688-.715.68-1.212a1.363 1.363 0 00-1.405-1.328z" fill="#A8E2C1"/><path d="M9.878 15.187c0-.212.04-.422.116-.62a1.38 1.38 0 00-2.088-.285 1.358 1.358 0 00-.292.378 1.36 1.36 0 00-.096.222c-.024.08-.04.161-.051.244 0 .115 0 .233-.02.35a1.315 1.315 0 01-.048.317 1.987 1.987 0 01-.227.481c-.3.515-.861.821-1.456.795a2.328 2.328 0 01-.26-.022 1.238 1.238 0 00-.27.112 1.386 1.386 0 00-.667 1.213 1.383 1.383 0 102.764-.068c-.019-.262.014-.526.097-.776a1.488 1.488 0 011.45-1.11c.206 0 .41.042.6.122.265-.13.481-.341.618-.603a1.709 1.709 0 01-.17-.75z" fill="#81D9B9"/><path d="M8.66 16.415c.67 0 1.212-.558 1.212-1.247 0-.69-.543-1.248-1.212-1.248-.67 0-1.212.559-1.212 1.248s.542 1.247 1.212 1.247z" fill="#81D9B9"/><path d="M6.245 17.005a1.81 1.81 0 01-.482.068H5.7a1.75 1.75 0 01-1.739-1.758V15.097a.97.97 0 01.02-.135c.009-.057.022-.114.038-.17a1.395 1.395 0 00-1.255-.714 1.366 1.366 0 10.068 2.728c.337-.022.671.056.962.225.212.11.393.27.526.469.289.484.097 1.045.391 1.523.268.413.733.657 1.226.641a1.356 1.356 0 00.32-2.675l-.012.016z" fill="#93D9E5"/><path d="M7.283 18.284a1.366 1.366 0 00-1.038-1.283h-.04c-.04 0-.085.02-.127.03H5.7a1.976 1.976 0 01-.247-.02 1.12 1.12 0 00-.267.11 1.386 1.386 0 00-.667 1.212c.008.44.237.848.61 1.084l.054.035c.065.04.133.073.205.1h.032c.068.022.135.038.203.054h.06c.082.008.163.008.244 0a1.376 1.376 0 001.357-1.321zM5.625 13.547c.753 0 1.364-.6 1.364-1.34 0-.74-.61-1.34-1.364-1.34-.752 0-1.363.6-1.363 1.34 0 .74.61 1.34 1.363 1.34z" fill="#81D9B9"/></svg>
